local/share/icons/dracula-icons-main/scalable/mimetypes/application-photoshop.svg

<?xml version="1.0" encoding="UTF-8"?>
<svg xmlns="http://www.w3.org/2000/svg" xmlns:xlink="http://www.w3.org/1999/xlink" width="64" height="64" viewBox="0 0 64 64">
<defs>
<filter id="filter-remove-color" x="0%" y="0%" width="100%" height="100%">
<feColorMatrix color-interpolation-filters="sRGB" values="0 0 0 0 1 0 0 0 0 1 0 0 0 0 1 0 0 0 1 0" />
</filter>
<mask id="mask-0">
<g filter="url(#filter-remove-color)">
<rect x="-6.4" y="-6.4" width="76.8" height="76.8" fill="rgb(0%, 0%, 0%)" fill-opacity="0.5"/>
</g>
</mask>
<linearGradient id="linear-pattern-0" gradientUnits="userSpaceOnUse" x1="49.570999" y1="52.714001" x2="51.714001" y2="54.856998" gradientTransform="matrix(0.617345, 0, 0, 0.617345, -18.167916, -19.050025)">
<stop offset="0" stop-color="rgb(0%, 0%, 0%)" stop-opacity="1"/>
<stop offset="1" stop-color="rgb(0%, 0%, 0%)" stop-opacity="0"/>
</linearGradient>
<clipPath id="clip-0">
<rect x="0" y="0" width="17" height="17"/>
</clipPath>
<g id="source-70" clip-path="url(#clip-0)">
<path fill-rule="evenodd" fill="url(#linear-pattern-0)" d="M 14.816406 12.171875 L 11.113281 15.875 L 13.492188 15.875 C 14.226562 15.875 14.816406 15.285156 14.816406 14.550781 Z M 14.816406 12.171875 "/>
</g>
</defs>
<path fill-rule="nonzero" fill="rgb(14.901961%, 14.901961%, 14.901961%)" fill-opacity="1" d="M 3.441406 1.058594 L 13.492188 1.058594 C 14.222656 1.058594 14.816406 1.652344 14.816406 2.382812 L 14.816406 14.550781 C 14.816406 15.28125 14.222656 15.875 13.492188 15.875 L 3.441406 15.875 C 2.707031 15.875 2.117188 15.28125 2.117188 14.550781 L 2.117188 2.382812 C 2.117188 1.652344 2.707031 1.058594 3.441406 1.058594 Z M 3.441406 1.058594 "/>
<g mask="url(#mask-0)">
<use xlink:href="#source-70"/>
</g>
<path fill-rule="nonzero" fill="rgb(0%, 78.431373%, 100%)" fill-opacity="1" d="M 5.40625 5.832031 C 5.40625 5.796875 5.472656 5.773438 5.511719 5.773438 C 5.824219 5.761719 6.285156 5.75 6.765625 5.75 C 8.109375 5.75 8.632812 6.488281 8.632812 7.433594 C 8.632812 8.664062 7.738281 9.195312 6.644531 9.195312 C 6.457031 9.195312 6.394531 9.183594 6.265625 9.183594 L 6.265625 11.046875 C 6.265625 11.085938 6.25 11.105469 6.207031 11.105469 L 5.464844 11.105469 C 5.425781 11.105469 5.40625 11.089844 5.40625 11.046875 Z M 6.269531 8.410156 C 6.378906 8.417969 6.46875 8.417969 6.664062 8.417969 C 7.230469 8.417969 7.761719 8.21875 7.761719 7.449219 C 7.761719 6.832031 7.378906 6.519531 6.734375 6.519531 C 6.539062 6.519531 6.355469 6.53125 6.269531 6.535156 Z M 10.441406 7.832031 C 10.058594 7.832031 9.925781 8.023438 9.925781 8.183594 C 9.925781 8.359375 10.015625 8.480469 10.527344 8.746094 C 11.289062 9.117188 11.527344 9.46875 11.527344 9.988281 C 11.527344 10.765625 10.933594 11.183594 10.136719 11.183594 C 9.714844 11.183594 9.347656 11.09375 9.140625 10.972656 C 9.105469 10.960938 9.101562 10.933594 9.101562 10.898438 L 9.101562 10.183594 C 9.101562 10.136719 9.125 10.121094 9.160156 10.144531 C 9.464844 10.34375 9.816406 10.429688 10.136719 10.429688 C 10.519531 10.429688 10.679688 10.269531 10.679688 10.050781 C 10.679688 9.878906 10.566406 9.722656 10.078125 9.46875 C 9.386719 9.140625 9.101562 8.804688 9.101562 8.25 C 9.101562 7.621094 9.59375 7.101562 10.441406 7.101562 C 10.859375 7.101562 11.148438 7.167969 11.308594 7.238281 C 11.347656 7.261719 11.359375 7.300781 11.359375 7.335938 L 11.359375 8 C 11.359375 8.039062 11.332031 8.0625 11.285156 8.050781 C 11.070312 7.914062 10.757812 7.832031 10.441406 7.832031 Z M 10.441406 7.832031 "/>
</svg>

<svg width="64" height="64" version="1.1" viewBox="0 0 16.933 16.933" xmlns="http://www.w3.org/2000/svg">
 <defs>
  <linearGradient id="a" x1="49.571" x2="51.714" y1="52.714" y2="54.857" gradientTransform="matrix(2.3333,0,0,2.3333,-68.667,-72.001)" gradientUnits="userSpaceOnUse">
   <stop offset="0"/>
   <stop stop-opacity="0" offset="1"/>
  </linearGradient>
 </defs>
 <g transform="scale(.26458)">
  <rect x="8" y="4" width="48" height="56" ry="5" fill="#262626" style="paint-order:stroke fill markers"/>
  <path d="m56 46-14 14h9c2.77 0 5-2.23 5-5z" fill="url(#a)" fill-rule="evenodd" opacity=".5" stroke-width="8.8191" style="paint-order:stroke fill markers"/>
 </g>
 <path class="st1" d="m5.4058 5.8326c0-0.03396 0.06791-0.05821 0.10671-0.05821 0.31044-0.01455 0.77124-0.02425 1.2515-0.02425 1.3436 0 1.8675 0.73729 1.8675 1.6832 0 1.2321-0.89251 1.7608-1.9887 1.7608-0.18432 0-0.24738-0.0097-0.37835-0.0097v1.8626c0 0.0388-0.01455 0.05821-0.05821 0.05821h-0.74214c-0.0388 0-0.05821-0.01455-0.05821-0.05821zm0.86341 2.5757c0.11156 0.0097 0.19888 0.0097 0.3929 0.0097 0.56752 0 1.1011-0.19887 1.1011-0.97012 0-0.61603-0.3832-0.92646-1.0283-0.92646-0.19402 0-0.37835 0.0097-0.46566 0.01455zm4.1715-0.57722c-0.3832 0-0.51416 0.19402-0.51416 0.35409 0 0.17462 0.08731 0.29589 0.60147 0.56267 0.76154 0.36865 0.99922 0.72274 0.99922 1.2418 0 0.7761-0.59177 1.1932-1.3921 1.1932-0.422 0-0.7858-0.08731-0.99437-0.20858-0.03395-0.01455-0.03881-0.0388-0.03881-0.07761v-0.71304c0-0.04851 0.02425-0.06306 0.05821-0.0388 0.30559 0.19888 0.65483 0.28618 0.97497 0.28618 0.3832 0 0.54327-0.16007 0.54327-0.37835 0-0.17462-0.11156-0.32984-0.60148-0.58207-0.68878-0.32984-0.97497-0.66453-0.97497-1.2224 0-0.62573 0.48991-1.1447 1.3388-1.1447 0.41715 0 0.70819 0.06306 0.86826 0.13582 0.03881 0.02425 0.04851 0.06306 0.04851 0.09701v0.66453c0 0.0388-0.02425 0.06306-0.07276 0.04851-0.21343-0.13582-0.52872-0.21828-0.844-0.21828z" enable-background="new" fill="#00c8ff" stroke-width=".048506"/>
</svg>
